public/icons/blue-profile.svg

<svg width="56" height="56" viewBox="0 0 56 56" fill="none" xmlns="http://www.w3.org/2000/svg">
<rect width="56" height="56" rx="28" fill="#1574E5"/>
<path fill-rule="evenodd" clip-rule="evenodd" d="M39 28C39 34.0751 34.0751 39 28 39C21.9249 39 17 34.0751 17 28C17 21.9249 21.9249 17 28 17C34.0751 17 39 21.9249 39 28ZM27.9969 37.5C25.103 37.5 19.8112 35.5674 21.2403 33C22.4976 30.7411 25.0409 28.5 27.9969 28.5C30.953 28.5 33.4962 30.7411 34.7536 33C36.2053 35.6079 30.8909 37.5 27.9969 37.5ZM28 28C30.2091 28 32 26.2091 32 24C32 21.7909 30.2091 20 28 20C25.7909 20 24 21.7909 24 24C24 26.2091 25.7909 28 28 28Z" fill="#F9FAFB"/>
</svg>

<svg xmlns="http://www.w3.org/2000/svg" width="56" height="56" fill="none"><rect width="56" height="56" fill="#1574E5" rx="28"/><path fill="#F9FAFB" fill-rule="evenodd" d="M39 28c0 6.075-4.925 11-11 11s-11-4.925-11-11 4.925-11 11-11 11 4.925 11 11m-11.003 9.5c-2.894 0-8.186-1.933-6.757-4.5 1.258-2.259 3.8-4.5 6.757-4.5s5.5 2.241 6.757 4.5c1.451 2.608-3.863 4.5-6.757 4.5M28 28a4 4 0 1 0 0-8 4 4 0 0 0 0 8" clip-rule="evenodd"/></svg>
